packages/core/src/svgs/tokens/mono/REUNI.svg

<svg width="24" height="24" viewBox="0 0 24 24" fill="none" xmlns="http://www.w3.org/2000/svg">
<path d="M14.5734 21.6456C16.9526 20.9969 19.0141 19.5042 20.3728 17.4463C21.3342 15.9775 21.8903 14.2809 21.9851 12.528C22.1273 9.94943 21.247 7.41887 19.5354 5.48512C18.3721 4.14715 16.8778 3.13813 15.2019 2.55907C13.5262 1.98001 11.7277 1.85119 9.98652 2.18553C8.06898 2.54176 6.29516 3.4443 4.87833 4.78462C3.46151 6.12496 2.462 7.84603 2 9.74092V9.80333C2.00089 9.80624 2.00249 9.80901 2.00468 9.8112C2.00685 9.81339 2.00954 9.81499 2.0125 9.81586C2.01589 9.81659 2.01945 9.81645 2.02276 9.81543C2.02607 9.81426 2.029 9.81222 2.03125 9.80959L3.48106 8.52852L3.74979 8.29104C4.08099 7.98483 4.4247 7.67862 4.76841 7.4474C4.95589 7.3224 5.14336 7.20992 5.33084 7.09744C5.49958 6.9912 5.67456 6.89121 5.84328 6.77873C5.98701 6.68498 6.1245 6.60375 6.26823 6.52876C6.96201 6.11767 7.68955 5.76645 8.44297 5.47888C8.56397 5.43209 8.68969 5.39857 8.81792 5.3789C8.96165 5.36015 9.19284 5.3289 9.26167 5.24141C9.33035 5.15392 9.40529 5.07268 9.48039 5.00393C9.96158 4.54775 10.4989 4.16654 11.0927 3.84783C11.2239 3.77908 11.4426 3.70409 11.7426 3.6166C12.1495 3.48001 12.5756 3.40831 13.0049 3.40413C13.6173 3.39163 14.236 3.39787 14.8422 3.49162C14.9671 3.51037 15.086 3.57285 15.1921 3.6666C15.4483 3.90407 15.4109 4.24153 15.2047 4.49775C14.8883 4.92188 14.622 5.38111 14.411 5.86633L14.2235 6.34128C14.2171 6.35751 14.216 6.3754 14.2204 6.39229C14.2249 6.40917 14.2349 6.42416 14.2486 6.43501L14.9047 6.87246C15.5609 7.31616 16.1671 7.85983 16.7169 8.49101C17.0294 8.84723 17.2356 9.29093 17.2793 9.72211L17.3856 10.8157C17.3919 10.922 17.4294 11.0158 17.4981 11.097C17.8105 11.5094 18.1668 11.8656 18.5605 12.203C18.9292 12.5155 19.148 12.928 19.1354 13.4217C19.1324 13.8483 18.9873 14.2616 18.7229 14.5966C18.6168 14.7278 18.4793 14.834 18.348 14.9403L18.298 14.984C18.2356 15.0278 18.1919 15.0778 18.1542 15.1402L18.0606 15.2902C17.9231 15.5089 17.7919 15.7277 17.6232 15.9339C17.2356 16.415 16.8607 16.815 16.4982 17.1275C16.3108 17.2962 16.0484 17.4775 15.7171 17.6774C15.3171 17.9149 14.9422 18.0585 14.586 18.1211C14.2798 18.1774 13.9424 18.1523 13.561 18.0587C13.3986 18.0149 13.1736 17.9336 12.8799 17.8023C12.0622 17.4549 11.1745 17.3039 10.2878 17.3614C9.40107 17.4188 8.54029 17.6834 7.7743 18.1336C6.99191 18.6074 6.33583 19.2636 5.86203 20.0459C7.10359 20.939 8.52748 21.5462 10.0314 21.8239C11.5355 22.1016 13.0823 22.0428 14.561 21.6519L14.5734 21.6456ZM15.5296 9.27212L15.4984 9.24718C15.3171 9.10341 15.1172 9.00345 14.8922 8.94096C14.8779 8.93922 14.8646 8.93259 14.8547 8.92222C14.8485 8.90971 14.8359 8.90347 14.8235 8.90971H14.7922C14.6345 8.88992 14.475 8.88992 14.3172 8.90971C14.3031 8.92945 14.2836 8.94464 14.261 8.95345C14.1111 9.0472 14.0548 9.1785 14.0922 9.34094C14.1297 9.50338 14.2172 9.6597 14.3423 9.81586C14.5422 10.0534 14.811 10.2221 15.1484 10.3283C15.2984 10.372 15.4483 10.3908 15.6109 10.3657C15.6958 10.353 15.7747 10.3137 15.8358 10.2533C16.117 9.98457 15.7359 9.47218 15.5234 9.27839L15.5296 9.27212Z" fill="white"/>
</svg>

<svg xmlns="http://www.w3.org/2000/svg" width="24" height="24" fill="none" viewBox="0 0 24 24">
    <path fill="#fff" d="M14.573 21.646a10.15 10.15 0 0 0 5.8-4.2 9.96 9.96 0 0 0 1.612-4.918 9.8 9.8 0 0 0-2.45-7.043 10.12 10.12 0 0 0-9.548-3.3A10.12 10.12 0 0 0 2 9.742v.062l.005.008.008.005h.01l.008-.006 1.45-1.281.269-.238c.331-.306.675-.612 1.018-.844.188-.125.375-.237.563-.35.169-.106.344-.206.512-.318.144-.094.282-.175.425-.25a14 14 0 0 1 2.175-1.05q.182-.07.375-.1c.144-.019.375-.05.444-.138q.104-.132.218-.237a7.4 7.4 0 0 1 1.613-1.156 4 4 0 0 1 .65-.231 4.1 4.1 0 0 1 1.262-.213c.612-.012 1.231-.006 1.837.088a.7.7 0 0 1 .35.175c.256.237.219.575.013.83a7 7 0 0 0-.794 1.37l-.187.474a.08.08 0 0 0 .025.094l.656.437a9.4 9.4 0 0 1 1.812 1.619c.312.356.519.8.562 1.231l.107 1.094q.009.16.112.281a7 7 0 0 0 1.063 1.106c.368.313.587.725.574 1.219-.003.426-.148.84-.412 1.175-.106.13-.244.237-.375.343l-.05.044a.5.5 0 0 0-.144.156l-.093.15c-.138.219-.27.438-.438.644a9 9 0 0 1-1.125 1.194c-.187.168-.45.35-.78.55-.4.237-.776.38-1.132.443-.306.056-.644.031-1.025-.062a5 5 0 0 1-.681-.257 5.69 5.69 0 0 0-5.106.332 5.7 5.7 0 0 0-1.912 1.912 10.36 10.36 0 0 0 8.699 1.606zm.957-12.374-.032-.025a1.7 1.7 0 0 0-.606-.306.06.06 0 0 1-.037-.019c-.007-.012-.02-.019-.032-.012h-.03a2 2 0 0 0-.476 0 .13.13 0 0 1-.056.043q-.225.143-.169.388c.038.162.125.319.25.475q.3.354.806.512c.15.044.3.063.463.038a.4.4 0 0 0 .225-.113c.281-.268-.1-.78-.313-.975z"/>
</svg>
